src/actions/24/document-new.svg

<svg viewBox="0 0 24 24" xmlns="http://www.w3.org/2000/svg">
 <defs>
  <style type="text/css">.ColorScheme-Text {
        color:#2e3440;
      }</style>
 </defs>
 <path class="ColorScheme-Text" d="m5 4v16h1 8v-1h-8v-14h8v3 1h4v6h1v-5.5938-1.4062-0.0078125l-3.9922-3.9922-0.007812 0.0097656v-0.0097656h-1-8-1zm11 11v2h-2v1h2v2h1v-2h2v-1h-2v-2h-1z" fill="currentColor"/>
</svg>

<svg xmlns="http://www.w3.org/2000/svg" viewBox="0 0 24 24">
  <defs id="defs3051">
    <style type="text/css" id="current-color-scheme">
      .ColorScheme-Text {
        color:#2e3440;
      }
      </style>
  </defs>
 <path 
    style="fill:currentColor;fill-opacity:1;stroke:none" 
     d="M 5 4 L 5 20 L 6 20 L 14 20 L 14 19 L 6 19 L 6 5 L 14 5 L 14 8 L 14 9 L 18 9 L 18 15 L 19 15 L 19 9.40625 L 19 8 L 19 7.9921875 L 15.007812 4 L 15 4.0097656 L 15 4 L 14 4 L 6 4 L 5 4 z M 16 15 L 16 17 L 14 17 L 14 18 L 16 18 L 16 20 L 17 20 L 17 18 L 19 18 L 19 17 L 17 17 L 17 15 L 16 15 z "
     class="ColorScheme-Text" />
</svg>
